X: 1
T:Masons' Apron -- Reel
M:2/4
L:1/16
R:reel
B:Ryan's Mammoth Collection
N:380
Z:Contributed by Ray Davies,  ray:davies99.freeserve.co.uk
K:A
ug2|\
aAAB ABAF | EFAB {AB}c2BA | dBBc BcBA | Bcde {g}f2ed |
aAAB ABAF | EFGB {AB}c2BA | Bcde fefa | (3AAA cB A2 |]
ue2|\
cAeA fAeA | cAeA fedc | dBfB bBfB | dBfB {g}f2ed |
cAeA fAeA | cAeA fedc | Bcde fefa | (3AAA cB A2 |]
